admin/src/assets/list_icon.svg

<svg width="22" height="22" viewBox="0 0 22 22" fill="none" xmlns="http://www.w3.org/2000/svg">
<path d="M10.6637 16.5578L16.1637 13.3825L10.6637 10.207V12.1603H5.83594V14.6047H10.6637V16.5578Z" fill="#5F6FFF"/>
<path d="M6.11285 4.88867C5.43784 4.88867 4.89062 5.43589 4.89062 6.11089C4.89062 6.7859 5.43784 7.33312 6.11285 7.33312H15.8906C16.5657 7.33312 17.1128 6.7859 17.1128 6.11089C17.1128 5.43589 16.5657 4.88867 15.8906 4.88867H6.11285Z" fill="#5F6FFF"/>
<path fill-rule="evenodd" clip-rule="evenodd" d="M3.66667 0C1.64163 0 0 1.64163 0 3.66667V18.3333C0 20.3584 1.64163 22 3.66667 22H18.3333C20.3584 22 22 20.3584 22 18.3333V3.66667C22 1.64163 20.3584 0 18.3333 0H3.66667ZM18.3333 2.44444H3.66667C2.99166 2.44444 2.44444 2.99166 2.44444 3.66667V18.3333C2.44444 19.0084 2.99166 19.5556 3.66667 19.5556H18.3333C19.0084 19.5556 19.5556 19.0084 19.5556 18.3333V3.66667C19.5556 2.99166 19.0084 2.44444 18.3333 2.44444Z" fill="#5F6FFF"/>
</svg>

<?xml version="1.0"?>
<svg width="22" height="22" xmlns="http://www.w3.org/2000/svg" xmlns:svg="http://www.w3.org/2000/svg">
 <g class="layer">
  <title>Layer 1</title>
  <path d="m10.66,16.56l5.5,-3.18l-5.5,-3.17l0,1.95l-4.82,0l0,2.44l4.82,0l0,1.96z" fill="#126a9c" id="svg_1"/>
  <path d="m6.11,4.89c-0.67,0 -1.22,0.55 -1.22,1.22c0,0.68 0.55,1.22 1.22,1.22l9.78,0c0.68,0 1.22,-0.54 1.22,-1.22c0,-0.67 -0.54,-1.22 -1.22,-1.22l-9.78,0z" fill="#126a9c" id="svg_2"/>
  <path clip-rule="evenodd" d="m3.67,0c-2.03,0 -3.67,1.64 -3.67,3.67l0,14.66c0,2.03 1.64,3.67 3.67,3.67l14.66,0c2.03,0 3.67,-1.64 3.67,-3.67l0,-14.66c0,-2.03 -1.64,-3.67 -3.67,-3.67l-14.66,0zm14.66,2.44l-14.66,0c-0.68,0 -1.23,0.55 -1.23,1.23l0,14.66c0,0.68 0.55,1.23 1.23,1.23l14.66,0c0.68,0 1.23,-0.55 1.23,-1.23l0,-14.66c0,-0.68 -0.55,-1.23 -1.23,-1.23z" fill="#126a9c" fill-rule="evenodd" id="svg_3"/>
 </g>
</svg>
